svg/set/CMR/T.svg

<?xml version="1.0" encoding="UTF-8" standalone="no"?>
<svg
   width="434.99689"
   height="500.75"
   viewBox="0 0 434.99689 500.75"
   version="1.1"
   xml:space="preserve"
   style="clip-rule:evenodd;fill-rule:evenodd;stroke-linejoin:round;stroke-miterlimit:2"
   id="svg7"
   xmlns="http://www.w3.org/2000/svg"
   xmlns:svg="http://www.w3.org/2000/svg">
    <path
   d="m 217.4987,0 c -34.384,0.015 -65.349,17.126 -78.381,43.313 -21.053,-5.572 -33.526,-15.682 -48.932003,-29.563 -20.708,13.384 -32.571,36.941 -32.812,53.5 -13.408,-4.621 -18.393,-9.79 -35.258,-23.248 -30.4889995,41.948 -32.523,105.455 13.383,131.394 v 12.229 c -9.823,0.713 -19,15.923 -19,26.9 v 62.418 c 66.287,104.553 120.601003,175.305 201.000003,223.807 80.398,-48.502 134.712,-119.254 201,-223.807 v -62.418 c 0,-10.977 -9.178,-26.187 -19,-26.9 v -12.229 c 45.905,-25.939 43.872,-89.446 13.382,-131.394 -16.865,13.458 -21.85,18.627 -35.257,23.248 -0.242,-16.559 -12.105,-40.116 -32.813,-53.5 -15.405,13.881 -27.879,23.991 -48.931,29.563 C 282.8467,17.126 251.8817,0.015 217.4987,0 Z"
   style="fill-rule:nonzero"
   id="path1" />
    <path
   d="m 217.4987,104.875 c -10.407,45.924 -33.834,54.375 -43.993,54.375 H 57.851697 c -1.996,0 -3.603,1.607 -3.603,3.604 v 26.292 c 0,1.997 1.607,3.604 3.603,3.604 H 167.5807 c 21.786,0 40.317,1.637 49.918,62.75 9.6,-61.113 28.131,-62.75 49.918,-62.75 h 109.728 c 1.997,0 3.604,-1.607 3.604,-3.604 v -26.292 c 0,-1.997 -1.607,-3.604 -3.604,-3.604 h -115.654 c -10.159,0 -33.586,-8.451 -43.992,-54.375 z"
   style="fill:#ffffff;fill-rule:nonzero"
   id="path2" />
    <path
   d="m 217.4987,19.371 c -29.421,0.001 -55.493,15.481 -63.715,37.83 -0.828,2.327 -1.452,4.697 -1.867,7.092 -21.551,-3.132 -43.045,-8.135 -61.246003,-23.838 -14.638,8.2 -15.372,36.613 -15.172,48.295 -22.217,-0.997 -33.299,-5.732 -47.432,-15.01 -15.261,30.33 -11.645,68.553 16.182,84.01 3.028,-7.287 11.541,-10 17.125,-10 H 174.7487 c 7.029,0 23.595,0 42.75,-75.875 19.154,75.875 35.72,75.875 42.75,75.875 h 113.375 c 5.583,0 14.097,2.713 17.125,10 27.826,-15.457 31.442,-53.68 16.181,-84.01 -14.133,9.278 -25.214,14.013 -47.431,15.01 0.199,-11.682 -0.534,-40.095 -15.172,-48.295 -18.202,15.703 -39.696,20.706 -61.246,23.838 -0.416,-2.395 -1.039,-4.765 -1.868,-7.092 -8.222,-22.349 -34.294,-37.829 -63.714,-37.83 z M 47.705697,203.734 c -6.66,0 -12.022,5.362 -12.022,12.022 v 55.508 c 9.684,16.064 19.661,32.263 30.322,48.431 4.804,-0.21 13.243,-2.292 13.243,-13.32 V 269.75 c 0,-6.786 5.463,-12.25 12.25,-12.25 6.786,0 12.250003,5.464 12.250003,12.25 v 102.301 c 12.092,15.159 25.277,30.114 39.857,44.734 6.474,-0.151 12.143,-6.635 12.143,-13.982 v -76.178 c 0,-6.856 5.519,-12.375 12.375,-12.375 6.855,0 12.375,5.519 12.375,12.375 v 123.734 c 11.513,9.468 23.805,18.727 37,27.733 13.195,-9.006 25.486,-18.265 37,-27.733 V 326.625 c 0,-6.856 5.519,-12.375 12.375,-12.375 6.855,0 12.375,5.519 12.375,12.375 v 76.178 c 0,7.347 5.668,13.831 12.142,13.982 14.58,-14.62 27.765,-29.575 39.858,-44.734 V 269.75 c 0,-6.786 5.463,-12.25 12.25,-12.25 6.786,0 12.25,5.464 12.25,12.25 v 36.625 c 0,11.028 8.439,13.11 13.242,13.32 10.662,-16.168 20.639,-32.367 30.322,-48.431 v -55.508 c 0,-6.66 -5.362,-12.022 -12.021,-12.022 h -128.428 c -18.979,1.408 -24.67,22.254 -27.707,35.676 -9.006,39.801 -11.734,101.003 -13.658,121.656 -1.924,-20.653 -4.653,-81.855 -13.659,-121.656 -3.037,-13.422 -8.727,-34.268 -27.707,-35.676 z"
   style="fill:url(#_Linear1);fill-rule:nonzero"
   id="path3" />
    <defs
   id="defs7">
        <linearGradient
   id="_Linear1"
   x1="0"
   y1="0"
   x2="1"
   y2="0"
   gradientUnits="userSpaceOnUse"
   gradientTransform="matrix(396.719,0,0,396.719,19.138797,248.731)"><stop
     offset="0"
     style="stop-color:rgb(97,44,117);stop-opacity:1"
     id="stop3" /><stop
     offset="0.3"
     style="stop-color:rgb(123,81,144);stop-opacity:1"
     id="stop4" /><stop
     offset="0.5"
     style="stop-color:rgb(191,153,195);stop-opacity:1"
     id="stop5" /><stop
     offset="0.7"
     style="stop-color:rgb(123,81,144);stop-opacity:1"
     id="stop6" /><stop
     offset="1"
     style="stop-color:rgb(97,44,117);stop-opacity:1"
     id="stop7" /></linearGradient>
    </defs>
</svg>

<?xml version="1.0" encoding="UTF-8" standalone="no"?>
<!DOCTYPE svg PUBLIC "-//W3C//DTD SVG 1.1//EN" "http://www.w3.org/Graphics/SVG/1.1/DTD/svg11.dtd">
<svg width="100%" height="100%" viewBox="0 0 435 501" version="1.1" xmlns="http://www.w3.org/2000/svg" xmlns:xlink="http://www.w3.org/1999/xlink" xml:space="preserve" xmlns:serif="http://www.serif.com/" style="fill-rule:evenodd;clip-rule:evenodd;stroke-linejoin:round;stroke-miterlimit:2;">
    <path d="M217.499,0C183.115,0.015 152.15,17.126 139.118,43.313C118.065,37.741 105.592,27.631 90.186,13.75C69.478,27.134 57.615,50.691 57.374,67.25C43.966,62.629 38.981,57.46 22.116,44.002C-8.373,85.95 -10.407,149.457 35.499,175.396L35.499,187.625C25.676,188.338 16.499,203.548 16.499,214.525L16.499,276.943C82.786,381.496 137.1,452.248 217.499,500.75C297.897,452.248 352.211,381.496 418.499,276.943L418.499,214.525C418.499,203.548 409.321,188.338 399.499,187.625L399.499,175.396C445.404,149.457 443.371,85.95 412.881,44.002C396.016,57.46 391.031,62.629 377.624,67.25C377.382,50.691 365.519,27.134 344.811,13.75C329.406,27.631 316.932,37.741 295.88,43.313C282.847,17.126 251.882,0.015 217.499,0Z" style="fill-rule:nonzero;"/>
    <path d="M217.499,104.875C207.092,150.799 183.665,159.25 173.506,159.25L57.852,159.25C55.856,159.25 54.249,160.857 54.249,162.854L54.249,189.146C54.249,191.143 55.856,192.75 57.852,192.75L167.581,192.75C189.367,192.75 207.898,194.387 217.499,255.5C227.099,194.387 245.63,192.75 267.417,192.75L377.145,192.75C379.142,192.75 380.749,191.143 380.749,189.146L380.749,162.854C380.749,160.857 379.142,159.25 377.145,159.25L261.491,159.25C251.332,159.25 227.905,150.799 217.499,104.875Z" style="fill:white;fill-rule:nonzero;"/>
    <path d="M217.499,19.371C188.078,19.372 162.006,34.852 153.784,57.201C152.956,59.528 152.332,61.898 151.917,64.293C130.366,61.161 108.872,56.158 90.671,40.455C76.033,48.655 75.299,77.068 75.499,88.75C53.282,87.753 42.2,83.018 28.067,73.74C12.806,104.07 16.422,142.293 44.249,157.75C47.277,150.463 55.79,147.75 61.374,147.75L174.749,147.75C181.778,147.75 198.344,147.75 217.499,71.875C236.653,147.75 253.219,147.75 260.249,147.75L373.624,147.75C379.207,147.75 387.721,150.463 390.749,157.75C418.575,142.293 422.191,104.07 406.93,73.74C392.797,83.018 381.716,87.753 359.499,88.75C359.698,77.068 358.965,48.655 344.327,40.455C326.125,56.158 304.631,61.161 283.081,64.293C282.665,61.898 282.042,59.528 281.213,57.201C272.991,34.852 246.919,19.372 217.499,19.371ZM47.706,203.734C41.046,203.734 35.684,209.096 35.684,215.756L35.684,271.264C45.368,287.328 55.345,303.527 66.006,319.695C70.81,319.485 79.249,317.403 79.249,306.375L79.249,269.75C79.249,262.964 84.712,257.5 91.499,257.5C98.285,257.5 103.749,262.964 103.749,269.75L103.749,372.051C115.841,387.21 129.026,402.165 143.606,416.785C150.08,416.634 155.749,410.15 155.749,402.803L155.749,326.625C155.749,319.769 161.268,314.25 168.124,314.25C174.979,314.25 180.499,319.769 180.499,326.625L180.499,450.359C192.012,459.827 204.304,469.086 217.499,478.092C230.694,469.086 242.985,459.827 254.499,450.359L254.499,326.625C254.499,319.769 260.018,314.25 266.874,314.25C273.729,314.25 279.249,319.769 279.249,326.625L279.249,402.803C279.249,410.15 284.917,416.634 291.391,416.785C305.971,402.165 319.156,387.21 331.249,372.051L331.249,269.75C331.249,262.964 336.712,257.5 343.499,257.5C350.285,257.5 355.749,262.964 355.749,269.75L355.749,306.375C355.749,317.403 364.188,319.485 368.991,319.695C379.653,303.527 389.63,287.328 399.313,271.264L399.313,215.756C399.313,209.096 393.951,203.734 387.292,203.734L258.864,203.734C239.885,205.142 234.194,225.988 231.157,239.41C222.151,279.211 219.423,340.413 217.499,361.066C215.575,340.413 212.846,279.211 203.84,239.41C200.803,225.988 195.113,205.142 176.133,203.734L47.706,203.734Z" style="fill:url(#_Linear1);fill-rule:nonzero;"/>
    <defs>
        <linearGradient id="_Linear1" x1="0" y1="0" x2="1" y2="0" gradientUnits="userSpaceOnUse" gradientTransform="matrix(396.719,0,0,396.719,19.1391,248.731)"><stop offset="0" style="stop-color:rgb(97,44,117);stop-opacity:1"/><stop offset="0.3" style="stop-color:rgb(123,81,144);stop-opacity:1"/><stop offset="0.5" style="stop-color:rgb(191,153,195);stop-opacity:1"/><stop offset="0.7" style="stop-color:rgb(123,81,144);stop-opacity:1"/><stop offset="1" style="stop-color:rgb(97,44,117);stop-opacity:1"/></linearGradient>
    </defs>
</svg>
